X: 145
T: REEL: Musical Priest
C: C: Trad.; S: Various
C: Set Leaders: Oliushka, Anton
Z: [Unedited]; Jeremy at The Session
N: https://thesession.org/members/26966/sets/95965
R: Reel
M: 4/4
L: 1/8
Q: 1/2=100
K: Bmin
|:BA|FBBA B2Bd|cBAf ecBA|FBBA B2Bd|cBAc B2:||
|:Bc|d2dc dfed|(3cBA eA fAeA|dcBc defb|afec B2:||
Bc|dBB2 bafb|afec ABce|dB B2 bafb|afec B2Bc|
dB B2 bafb|afec ABce|dcBc defb|afec B2||

